cy/host-outline-alerted.svg

<svg xmlns="http://www.w3.org/2000/svg" viewBox="0 0 36 36" height="1em" width="1em">
  <g data-name="Layer 5">
    <path d="M18 28.78a3 3 0 1 0-3-3 3 3 0 0 0 3 3Zm0-4.5a1.5 1.5 0 1 1-1.5 1.5 1.5 1.5 0 0 1 1.5-1.5Zm.89-14.08H12v1.6h6.56a3.7 3.7 0 0 1 .33-1.6ZM12 6.2v1.6h8.25l.93-1.6H12z"/>
    <path d="M26 32H10V4h12.45l1.15-2H9.5A1.5 1.5 0 0 0 8 3.5V34h20V15.4h-2Z"/>
    <path d="m34.78 11.05-5.72-9.91a1.28 1.28 0 0 0-2.21 0l-5.72 9.91a1.27 1.27 0 0 0 1.1 1.95h11.45a1.27 1.27 0 0 0 1.1-1.95Z"/>
  </g>
</svg>

<svg xmlns="http://www.w3.org/2000/svg" viewBox="0 0 36 36" height="1em" width="1em">
  <g data-name="Layer 5">
    <path d="M18,28.78a3,3,0,1,0-3-3A3,3,0,0,0,18,28.78Zm0-4.5a1.5,1.5,0,1,1-1.5,1.5A1.5,1.5,0,0,1,18,24.28Z"/>
    <path d="M18.89,10.2H12v1.6h6.56A3.7,3.7,0,0,1,18.89,10.2Z"/>
    <polygon points="12 6.2 12 7.8 20.25 7.8 21.18 6.2 12 6.2"/>
    <path d="M26,32H10V4H22.45L23.6,2H9.5A1.5,1.5,0,0,0,8,3.5V34H28V15.4H26Z"/>
    <path d="M34.78,11.05,29.06,1.14a1.28,1.28,0,0,0-2.21,0l-5.72,9.91A1.27,1.27,0,0,0,22.23,13H33.68A1.27,1.27,0,0,0,34.78,11.05Z"/>
  </g>
</svg>
